X:12
T:Shan's Brock
Z:id:hn-mazurka-4
M:3/8
K:G
|:DE DF|GB dc Bc|d2 dc d2|c2 e2 ee|dd c2 A2|d2 gd


*****************************


14200 2 1.2012079 

<startuphkapste-nest polke
H:Deran areee to playe vinezth#mathe
K:G
GB | A2 A2 | B2 B2 cB | A2 de dB | B2


*****************************


14300 2 1.2443601 

<start>
